X: 1543
T: Leather Buttons
T: cnapi.de lea.tair.
R: reel
B: O'Neill's 1850 "Music of Ireland" #1543
O: Carey
Z: transcribed by John B. Walsh, walsh@math.ubc.ca 8/23/96
Z: Compacted via repeats and multiple endings [JC]
M: C|
L: 1/8
K: D
|: FDAD BDAD | FDAF E2(EG) | FDAD BDAD | Bdce [1 dBAG :|[2 d2Hd2 |: d2(fd) edfd | d2(fd) e2e2 |
| d2(fd) edfd | agfe dABc || d2(fd) edfd | d2(af) e2e2 | agfe dcBA | Bdce dBA"_D.C."G |]
